X: 1
T: Sergeant Early's Dream
R: reel
M: 4/4
L: 1/8
K: Ddor
|:dc|ADDE FAcA|GECD ~E3F|DA, DE FEFG|Adde fedc|
ADDE FAcA|GECD ED^CE|DA,DE FAcA|GECE D2:|
|:FG|Addc d2Ad|f2ed cAGF|ECEG cBcd|eced cABG|
Addc d2Ad|f2ed cAFA|GEcE dEcE|ED^CE D2:|


Tune 1651	Setting 15076

